!!!OTL: 192. Sher
!!!Genre:	Sher
!!!Mode:	Minor
!!!Listening/dance:	dance
!!!One_Mode:	no
**kern
*thru
*I"P1
*clefG2
*k[b-e-]
*B-:
*>A
!LO:TX:a:i:t=Bb-major
8ff
=1
8ffL
8ggJ
4ff
=2
4dd
4b-
=3
8ccL
8ddJ
4cc
=4
4b-
4r
=5
8ffL
8ggJ
16aa-XLL
16ggJ
8ffJ
=6
8ee-L
8dd
8cc
8b-J
=7
[2ff
=8
4ff]
4r
!!!End-Modulation
*B-:
!LO:TX:a:i:t=Bb-major
8f
=17
8fL
8b-
8b-
8ccJ
=18
8ddL
8ddJ
4dd
=19
8ddL
8ccJ
16ddLL
16ccJ
8b-J
=20
4b-
4r
=21
8ffL
8ggJ
16aa-XLL
16ggJ
8ffJ
=22
8ee-L
8dd
8cc
8b-J
=23
2ff
=24
4ff
8r
8f
=25
8fL
8b-
8b-
8ccJ
=26
8ddL
8ddJ
4dd
=27
8ddL
8ccJ
16ddLL
16ccJ
8b-J
=28
4b-
4cc
!!!End-Modulation
*-
